X:4
T:Morovac Kolo
R:kolo
O:Serbia
Z:id:hn-kolo-4
M:2/4
L:1/16
K:Emix
E4 A2G2 | FEAG F2F2 | G2E2 FEAG | F2F2 F2FE |
EGBG A2G2 | FEAG F2F2 | G2E2 FEAG| FFFB FFF2 :|
|: G4 B2GB | A2AG ABGE | G2B2 BGcB | A2AG ABGE :|
|: B,EFG A2G2 | GFAG F2FB | A2G2 GFAG |1 F2FB F2F2 :|2 FEFG ABcd ||
|: edcB AcBA | GBAG F2F2 | A2G2 GFAG |1 FEFG ABcd :|2 F2FB F2F2 ||

